!!!COM: Bach, Johann Sebastian
!!!CDT: 1685/02/21/-1750/07/28/
!!!OTL: Transcription of Vivaldi's Op. 3, No. 3, RV310
!!!ODT: 1713///
!!!SCT: BWV 978
!!!OMV: Mvmt. 2
!!!OMD: Largo
**kern	**kern
*lh	*rh
*staff2	*staff1
*clefF4	*clefG2
*k[b-]	*k[b-]
*d:	*d:
*M3/4	*M3/4
*MM50	*MM50
=1-	=1-
*^	*^
4F/ 4A/ 4d/	4D\	4dd/	4f\ 4a\
4F/ 4A/ 4d/	4D\	4dd/	4f\ 4a\
4F/ 4A/ 4d/	4D\	4dd/	4f\ 4a\
=2	=2	=2	=2
4F/ 4A/ 4d/	4D\	(16dd/LL	4f\
.	.	16a/	.
.	.	16g/	.
.	.	16a/JJ	.
4r	4r	(16ff/LL)	4r
.	.	16dd/	.
.	.	16cc#/	.
.	.	16dd/JJ	.
4r	4r	(16aa/LL)	4r
.	.	16ff/	.
.	.	16ee/	.
.	.	16dd/JJ)	.
=3	=3	=3	=3
4E/ 4G/ 4A/	4AA\	4cc#/	4e\ 4g\ 4a\
4E/ 4G/ 4A/	4AA\	4cc#/	4e\ 4g\ 4a\
4E/ 4G/ 4A/	4AA\	4cc#/	4e\ 4g\ 4a\
=4	=4	=4	=4
4E/ 4G/ 4A/	4AA\	(16cc#/LL	4e\
.	.	16a/	.
.	.	16g/	.
.	.	16a/JJ	.
4r	4r	(16ee/LL)	4r
.	.	16a/	.
.	.	16g/	.
.	.	16a/JJ	.
4r	4r	(16gg/LL)	4r
.	.	16a/	.
.	.	16g/	.
.	.	16a/JJ)	.
=5	=5	=5	=5
4F/ 4A/ 4d/	4D\	4dd/	4f\ 4a\
4F/ 4A/ 4d/	4D\	4dd/	4f\ 4a\
4F/ 4A/ 4d/	4D\	4dd/	4f\ 4a\
=6	=6	=6	=6
4F/ 4A/ 4d/	4D\	(16dd/LL	4f\ 4a\
.	.	16ff/	.
.	.	16ee/	.
.	.	16dd/JJ	.
4r	4r	(16aa/LL)	4r
.	.	16ff/	.
.	.	16ee/	.
.	.	16dd/JJ	.
4r	4r	(16aa/LL)	4r
.	.	16ff#/	.
.	.	16ee/	.
.	.	16dd/JJ)	.
=7	=7	=7	=7
4A/	4F#\	4ccn/	4d\ 4f#\ 4a\
4A/	4F#\	4cc/	4d\ 4f#\ 4a\
4A/	4F#\	4cc/	4d\ 4f#\ 4a\
=8	=8	=8	=8
4A/	4F#\	(16cc/LL	4d\ 4a\
.	.	16bn/	.
.	.	16cc/	.
.	.	16aa/JJ)	.
4r	4r	(16ff#/LL	4r
.	.	16cc/	.
.	.	16b/	.
.	.	16cc/JJ	.
4r	4r	16aa/LL)	4r
.	.	16cc/	.
.	.	16b-/	.
.	.	16a/JJ	.
=9	=9	=9	=9
4B-/	4G\	4b-/	4d\ 4g\
4B-/	4G\	4b-/	4d\ 4g\
4B-/	4G\	4b-/	4d\ 4g\
=10	=10	=10	=10
4B-/	4G\	(16b-/LL	4d\ 4g\
.	.	16dd/	.
.	.	16b-/	.
.	.	16a/JJ)	.
4r	4r	(16g/LL	4r
.	.	16d/	.
.	.	16g/	.
.	.	16b-/JJ	.
4r	4r	(16dd/LL)	4r
.	.	16g/	.
.	.	16b-/	.
.	.	16dd/JJ)	.
=11	=11	=11	=11
4G#/ 4Bn/ 4e/	4E\	4ee/ 4gg#/	4bn\ 4dd\
4G#/ 4B/ 4e/	4E\	4ee/ 4gg#/	4b\ 4dd\
4G#/ 4B/ 4e/	4E\	4ee/ 4gg#/	4b\ 4dd\
=12	=12	=12	=12
4C/ 4E/ 4A/	4AA\	(16aa/LL	8a\ 8cc\
.	.	16ee/	.
.	.	16cc/	8r
.	.	16bn/JJ)	.
4r	4r	(16a/LL	4r
.	.	16cc/	.
.	.	16b/	.
.	.	16a/JJ	.
4r	4r	(16ee/LL)	4r
.	.	16cc/	.
.	.	16b/	.
.	.	16a/JJ)	.
*	*	*v	*v
=13	=13	=13
4F/ 4A/ 4Bn/ 4d/	4D\	(16aa\LL
.	.	16ff\
.	.	16ee\
.	.	16dd\JJ)
4r	4r	(16aa\LL
.	.	16ff\
.	.	16ee\
.	.	16dd\JJ)
4r	4r	(16aa\LL
.	.	16ff\
.	.	16ee\
.	.	16dd\JJ)
=14	=14	=14
4G#/ 4Bn/ 4d/	4E\	(16gg#\LL
.	.	16ee\
.	.	16dd\
.	.	16bn\JJ)
4r	4r	(16g#/LL
.	.	16e/
.	.	16d/
.	.	16e/JJ)
4r	4r	(16g#\LL
.	.	16b\
.	.	16dd\
.	.	16gg#\JJ)
=15	=15	=15
*	*	*^
4C/ 4E/ 4A/	4AA\	4aa/	4a\ 4cc\ 4ee\
4C/ 4E/ 4A/	4AA\	4aa/	4a\ 4cc\ 4ee\
4C/ 4E/ 4A/	4AA\	4aa/	4a\ 4cc\ 4ee\
=16	=16	=16	=16
4C#/ 4E/ 4A/	4AA\	4ggn/	4a\ 4cc#\ 4ee\
4C#/ 4E/ 4A/	4AA\	4gg/	4a\ 4cc#\ 4ee\
4C#/ 4E/ 4A/	4AA\	4gg/	4a\ 4cc#\ 4ee\
=17	=17	=17	=17
4F#/ 4A/	4D\	(16ff#/LL	4a\ 4dd\
.	.	16ccn/)	.
.	.	(16cc/	.
.	.	16aa/JJ)	.
4r	4r	(16aa/LL	4r
.	.	16cc/	.
.	.	(16cc/)	.
.	.	16ff#/JJ)	.
4r	4r	(16ff#/LL	4r
.	.	16aa/	.
.	.	16gg/	.
.	.	16ff#/JJ)	.
=18	=18	=18	=18
4BB-/ 4D/ 4G/	4GG\	4gg/	4g\ 4b-\ 4dd\
4BB-/ 4D/ 4G/	4GG\	4gg/	4g\ 4b-\ 4dd\
4BB-/ 4D/ 4G/	4GG\	4gg/	4g\ 4b-\ 4dd\
=19	=19	=19	=19
4BBn/ 4D/ 4G/	4GG\	4ffn/	4g\ 4bn\ 4dd\
4BB/ 4D/ 4G/	4GG\	4ff/	4g\ 4b\ 4dd\
4BB/ 4D/ 4G/	4GG\	4ff/	4g\ 4b\ 4dd\
=20	=20	=20	=20
4E/ 4G/ 4c/	4C\	(16ee/LL	4g\
.	.	16cc/)	.
.	.	(16cc/	.
.	.	16gg/JJ	.
4E/ 4G/ 4c/	4C\	(16gg/LL)	4r
.	.	16cc/	.
.	.	(16cc/)	.
.	.	16ee/JJ)	.
4E/ 4G/ 4B-/	4C\	(16ee/LL	4r
.	.	16gg/	.
.	.	16ff/	.
.	.	16ee/JJ)	.
*	*	*v	*v
=21	=21	=21
4E/ 4G/ 4A/	4C#\	(16aa\LL
.	.	16cc#\)
.	.	(16cc#\
.	.	16ee\JJ)
4E/ 4G/ 4A/	4C#\	(16ee\LL
.	.	16a\)
.	.	(16a\
.	.	(16ee\JJ)
4E/ 4G/ 4A/	4C#\	16ee\LL
.	.	16gg\
.	.	16ff\
.	.	16ee\JJ)
=22	=22	=22
*	*	*^
4F/ 4A/ 4d/	4D\	(16ff/LL	8.r
.	.	16dd/	.
.	.	(16dd/)	.
.	.	16ee-/JJ	16g\
4r	4r	(16ee-/LL)	16g\LL
.	.	16ff#/	&(16a\&)
.	.	(16ff#/)	16a\
.	.	16gg/JJ	&(16b-\JJ&)
4r	4r	(16gg/LL)	16b-\LL
.	.	16gg#/	&(16bn\J&)
.	.	(16gg#/)	8b\J
.	.	16aa/JJ)	.
*	*	*v	*v
=23	=23	=23
4E/ 4Gn/ 4A/	4C#\	[4aa\
4E/ 4G/ 4A/	4C#\	(16aa\LL]
.	.	16a\
.	.	16gn\
.	.	16a\JJ)
4E/ 4G/ 4A/	4C#\	(16ggn\LL
.	.	16a\
.	.	16g\
.	.	16a\JJ)
=24	=24	=24
*	*	*^
8A/L	8D\L	8ffn/L	8d\L
8B-/J	8G\J	16ee/L	8e\J
.	.	16dd/JJ	.
2A/	4A\	4.cc#/	2e\
.	4AA\	.	.
.	.	8dd/	.
=25	=25	=25	=25
4F/ 4A/	4D\	4dd/	4d\ 4f\ 4a\
4F/ 4A/	4D\	4dd/	4d\ 4f\ 4a\
4F/ 4A/	4D\	4dd/	4d\ 4f\ 4a\
=26	=26	=26	=26
4F#/ 4A/ 4d/	2D\	8ff#/L	2a\ 2ccn\
.	.	8aa/J	.
8r	.	(16aa/LL	.
.	.	16gg/	.
(16A/LL	.	16ff#/	.
16G/JJ	.	16ee/JJ)	.
(16F#/LL)	4r	(16dd/LL	4r
16A/	.	16cc/	.
16G/	.	16b-/	.
16F#/JJ)	.	16a/JJ)	.
=27	=27	=27	=27
4D/ 4G/	2GG\	8b-/L	2d\ 2g\
.	.	8dd/J	.
8r	.	(16dd/LL	.
.	.	16cc/	.
(16d/LL	.	16b-/	.
16c/JJ	.	16a/JJ)	.
(16B-/LL)	4r	(16g/LL	4r
16A/	.	16fn/	.
16G/	.	16e/	.
16Fn/JJ)	.	16d/JJ)	.
*	*	*v	*v
=28	=28	=28
4C#/ 4E/ 4A/	4AA\	(16cc#/LL
.	.	16a/
.	.	16g/
.	.	16a/JJ)
4C#/ 4E/ 4G/ 4A/	4AA\	(16ee\LL
.	.	16a\
.	.	16g\
.	.	16a\JJ)
4C#/ 4E/ 4G/ 4A/	4AA\	(16gg\LL
.	.	16a\
.	.	16g\
.	.	16a\JJ)
=29	=29	=29
*	*	*^
8F/ 8A/L	8D\L	8ff/L	8a\L
8B-/J	8G\J	16ee/L	8g\J
.	.	16dd/JJ	.
2A/	4A\	4.cc#/	2e\ 2g\
.	4AA\	.	.
.	.	8dd/	.
=30	=30	=30	=30
4A/ 4d/	4D\	4dd/	4f\
4F/ 4A/ 4d/	4D\	4dd/ 4ff/	4f\ 4a\
4F/ 4A/ 4d/	4D\	4dd/ 4ff/	4f\ 4a\
=31	=31	=31	=31
4B-/ 4e/	4G\	4dd/ 4ee/	4g\ 4b-\
4A/	4A\	4cc#/ 4ee/	4g\ 4a\
4C#/ 4E/ 4A/	4AA\	4cc#/ 4ee/	4g\ 4a\
=32	=32	=32	=32
2.F/ 2.A/	2.D\	2.dd/	2.d\ 2.f\ 2.a\
*v	*v	*	*
*	*v	*v
==	==
*-	*-
